svg/tabs.svg

<svg width="284" height="284" viewBox="0 0 284 284" xmlns="http://www.w3.org/2000/svg">
    <path d="M170.785 204.726h73.699l-.002-42.46c0-14.101-9.525-25.572-21.232-25.572h-52.467v-31.121c0-14.101-9.525-25.573-21.232-25.573l-43.283.001c.278 3.707.193 7.506.028 11.34l43.255-.001c5.361 0 9.892 6.518 9.892 14.233v87.811l-109.104.001v-87.811c0-7.715 4.53-14.233 9.891-14.233h46.066c.165-3.834.25-7.633-.028-11.34H60.23C48.524 80.001 39 91.473 39 105.574v99.152l131.783-.001v-56.691h52.467c5.363 0 9.892 6.517 9.892 14.232l.002 31.12h-62.359v11.34z" fill="#1A1918" fill-rule="evenodd"/>
</svg>

<svg width="284" height="284" viewBox="0 0 284 284" fill="none" xmlns="http://www.w3.org/2000/svg">
<path fill-rule="evenodd" clip-rule="evenodd" d="M170.785 204.726H244.484L244.482 162.266C244.482 148.165 234.957 136.694 223.25 136.694H170.783V105.573C170.783 91.472 161.258 80 149.551 80L106.268 80.001C106.546 83.708 106.461 87.507 106.296 91.341L149.551 91.34C154.912 91.34 159.443 97.858 159.443 105.573V193.384L50.339 193.385V105.574C50.339 97.859 54.869 91.341 60.23 91.341H106.296C106.461 87.507 106.546 83.708 106.268 80.001H60.23C48.524 80.001 39 91.473 39 105.574V204.726L170.783 204.725V148.034H223.25C228.613 148.034 233.142 154.551 233.142 162.266L233.144 193.386H170.785V204.726Z" fill="#1A1919"/>
</svg>
